X:1
T:Lass O' Ballochmyle
M:4/4
L:1/4
K:G
 z2 z B| G3/2 F/2 E g3/4- f/4| e3/2 d/2 B g| d B g B| B-A/2-G/2 A B|\
 G3/2 F/2 E g3/4- f/4| e3/2 d/2 B g| g3/2 f/2e/2-f/2g/2-e/2| d B B d|\
 g3/2 a/2 g G| B d3/4- e/4 d3/2 d/2|g/2-f/2g/2-a/2 gf/2-e/2|f/2-g/2a/2-b/2 ag/2-a/2|\
 ba/2-g/2 g G| B d b3/2 a/2| g e e3/4- f/4g/2-e/2| d B B z|
